X:61
T:Tom Bigbee
Q:1/4=160
I:abc2nwc
M:3/4
L:1/8
K:G
BA|G2B2B2|B d3BA|G2B2B2|B d3Bc|B2A2A2|
A3B cd|e2d2d2|d3c BA|G2B2B2|B d3BA|
G2B2B2|B d3Bc|B2A2A2|A3B cd|e2d2F2|G4:|
|:d2|g4d2|g4d2|e2d2e2|B4Bc|B2A2A2|A3B cd|e2d2d2|
d4d2|g4d2|g4d2|e2d2e2|B4Bc|B2A2A2|A3B cd|e2d2F2|G4:|


